Obsidian-SemiLight/actions/22s/dfrac.svg

<svg viewBox="0 0 22 22" xmlns="http://www.w3.org/2000/svg"><path d="m8.15625 2 2.306641 3.8300781-2.462891 4.1699219h.9882812l1.9921878-3.4746094 1.960937 3.4746094h1.058594l-2.46875-4.1914062 2.291016-3.8085938h-.982422l-1.830078 3.1347656-1.8144535-3.1347656zm-3.15625 9v1h12v-1zm3 2 2.521484 4.941406v3.058594h.957032v-3.103516l2.521484-4.896484h-1.025391l-1.972656 3.933594-1.9609374-3.933594z" fill="#4d4d4d"/></svg>

<svg xmlns="http://www.w3.org/2000/svg" viewBox="0 0 22 22">
  <defs id="defs3051">
    <style type="text/css" id="current-color-scheme">
      .ColorScheme-Text {
        color:#4d4d4d;
      }
      </style>
  </defs>
 <path 
     style="fill:currentColor;fill-opacity:1;stroke:none" 
     d="M 8.15625 2 L 10.462891 5.8300781 L 8 10 L 8.9882812 10 L 10.980469 6.5253906 L 12.941406 10 L 14 10 L 11.53125 5.8085938 L 13.822266 2 L 12.839844 2 L 11.009766 5.1347656 L 9.1953125 2 L 8.15625 2 z M 5 11 L 5 12 L 17 12 L 17 11 L 5 11 z M 8 13 L 10.521484 17.941406 L 10.521484 21 L 11.478516 21 L 11.478516 17.896484 L 14 13 L 12.974609 13 L 11.001953 16.933594 L 9.0410156 13 L 8 13 z "
	 class="ColorScheme-Text"
     />
</svg>
